X:1
T:The Fly Fishing
L:1/8
Q:1/4=120
M:4/4
K:D
|: dcAF G2 FG | ADDD E/F/G AF | GAFA G2 FG | Addf eg fe | 
dcAF G2 FG | ADDD E/F/G AF | GAFA G2 FG |1 Ad dc d2 de :|2 Ad dc d2 ed 
|: fa af dfaf | =cfaf B3 A | GA B/c/d gdBd | ceab agfe | 
fa af dfaf | =cfaf B3 A | GA B/c/d gdBd |1 cedc d2 ed :|2 cedc d2 dc |] 


